!!!COM: Music21
!!!OTL: slide_Tarantella-Philippe-Juszczak
!!!OMV: slide_Tarantella-Philippe-Juszczak
**kern
*clefG2
*k[f#]
*G:
*M12/8
=1
8dd
=
8ddL
8ee
8ddJ
4gg
8gg
8ddL
8ee
8ddJ
4dd
[8b
=
4b]
8dd
8ddL
8ee
8ddJ
8ddL
8ee
8ddJ
[4.cc
=
4cc]
8dd
4ff#
8ff#
8eeL
8ff#
8eeJ
[4.dd
=
4dd]
8ddL
8dd
8eeJ
8ddL
8cc
8b
8aJ
4b
8ryy
!!linebreak:original
=||
*M12/8
8dd
=
8ddL
8ee
8ddJ
4gg
8gg
8ddL
8ee
8ddJ
4dd
[8b
=
4b]
8dd
8ddL
8ee
8ddJ
8ddL
8ee
8ddJ
[4.cc
=
4cc]
8dd
4ff#
8ff#
8eeL
8ff#
8eeJ
[4.dd
=
4dd]
8ddL
8dd
8eeJ
8ddL
8cc
8b
8aJ
[4g
8ryy
!!linebreak:original
=||
8g]
1ryy
4.ryy
=
8ddL
8ee
8ddJ
4b
8b
4g
8b
4.a
=
8ddL
8ee
8ddJ
4cc
8cc
8ddL
8ee
8ddJ
4b
8b
=
8ddL
8ee
8ddJ
4b
8b
4g
8b
[4.a
=
4a]
8ddL
8dd
8eeJ
8ddL
8cc
8b
8aJ
4b
8ryy
!!linebreak:original
=||
8g
1ryy
4.ryy
=
8ddL
8ee
8ddJ
4b
8b
4g
8b
4.a
=
8ddL
8ee
8ddJ
4cc
8cc
8ddL
8ee
8ddJ
4b
8b
=
8ddL
8ee
8ddJ
4b
8b
4g
8b
[4.a
=
4a]
8ddL
8dd
8eeJ
8ddL
8cc
8b
8aJ
4g
8ryy
=||
*-
